static/images/mobile/copyright/wikipedia-wordmark-fy.svg

<?xml version="1.0" encoding="UTF-8"?>
<svg width="120px" height="19px" viewBox="0 0 120 19" version="1.1" xmlns="http://www.w3.org/2000/svg" xmlns:xlink="http://www.w3.org/1999/xlink">
    <title>fy-wordmark</title>
    <g id="Page-1" stroke="none" stroke-width="1" fill="none" fill-rule="evenodd">
        <path d="M16.4562625,0.940785343 C17.6847009,1.11183722 17.5418591,1.73902745 16.6848093,3.39252897 L15.1706863,6.24339364 L15.0278445,6.10085041 L13.6279949,3.22147708 C12.8566503,1.59648422 12.7423768,1.11183722 13.9422469,0.940785343 C14.113657,0.769733463 14.113657,0.171051881 13.9422469,0 C12.913787,0.0285086468 12.4566911,0.0570172935 11.3425262,0.0570172935 C10.1997929,0.0570172935 9.71412866,0.0285086468 8.79994223,0 C8.62853313,0.171051881 8.65710149,0.769733463 8.82851059,0.940785343 C10.056949,1.11183722 10.285498,1.51095828 11.2282528,3.5350722 L13.6279949,8.63811997 L10.4569071,15.1095828 L10.3140653,15.1095828 L5.0860566,3.22147708 C4.37184762,1.59648422 4.45755375,1.14034587 6.25735932,0.940785343 C6.42876842,0.769733463 6.42876842,0.171051881 6.25735932,0 C4.9146475,0.0285086468 4.20043641,0.0570172935 3.08627146,0.0570172935 C1.94353815,0.0570172935 1.45787287,0.0285086468 0.115162107,0 C-0.0562480477,0.171051881 -0.0276796886,0.769733463 0.143730466,0.940785343 C1.77212482,1.08332858 1.82926366,1.51095828 2.68631443,3.5350722 L8.91421566,18.1314993 C9.08562582,18.559129 9.28560433,18.7871982 9.57128792,18.7871982 C9.88553987,18.7871982 10.0855184,18.559129 10.2569285,18.1314993 L14.4564773,9.86399178 L18.3132058,18.1314993 C18.4560476,18.559129 18.6845945,18.7871982 18.9702781,18.7871982 C19.28453,18.7871982 19.4559402,18.559129 19.6559187,18.1314993 L26.3980515,3.59208949 C26.9979859,2.28069174 27.3408094,1.16885452 29.226319,0.940785343 C29.3977292,0.769733463 29.3977292,0.171051881 29.226319,0 C28.0835857,0.0285086468 27.3693746,0.0570172935 26.7123034,0.0570172935 C26.0552322,0.0570172935 25.2267477,0.0285086468 23.8840359,0 C23.7126257,0.171051881 23.7126257,0.769733463 23.8840359,0.940785343 C25.7409771,1.08332858 25.7695465,1.85306204 25.1124753,3.39252897 L19.6844871,15.1095828 L19.5416453,15.1095828 L15.8848953,7.58330004 L17.9703855,3.59208949 C18.6845934,2.28069174 19.3130994,1.16885452 20.7986531,0.940785343 C20.9700632,0.769733463 20.9700632,0.171051881 20.7986531,0 C20.0844451,0.0285086468 19.3702341,0.0570172935 18.7131628,0.0570172935 C18.0560916,0.0570172935 17.5132907,0.0285086468 16.4562625,0 C16.2848523,0.171051881 16.2848523,0.769733463 16.4562625,0.940785343 M33.8336028,7.0743679 C33.8336028,6.50419497 34.1478548,6.27612579 35.0334739,6.19059985 L35.6334095,6.13358256 C35.7476818,6.13358256 35.8048196,6.07656526 35.8048196,5.99103932 L35.8048196,5.3638491 L35.7762513,5.3068318 C35.7762513,5.3068318 33.5764865,5.3638491 32.8051419,5.3638491 C31.9195228,5.3638491 29.6626224,5.3068318 29.6626224,5.3068318 L29.634054,5.3638491 L29.634054,6.01954797 C29.634054,6.10507391 29.7197591,6.13358256 29.8340326,6.13358256 L30.4053997,6.19059985 C31.2910178,6.27612579 31.6338392,6.44717767 31.6338392,7.0743679 L31.6338392,16.5677473 C31.6338392,17.1094116 31.3481545,17.5655499 30.4053997,17.6510759 L29.8340326,17.7080931 C29.7197591,17.7080931 29.634054,17.7651104 29.634054,17.879145 L29.634054,18.4778266 L29.6911908,18.5348439 C29.6911908,18.5348439 31.9195228,18.4778266 32.7194368,18.4778266 C33.6050549,18.4778266 35.7762513,18.5348439 35.7762513,18.5348439 L35.8048196,18.4778266 L35.8048196,17.879145 C35.8048196,17.7651104 35.7191145,17.7080931 35.6334095,17.7080931 L35.0334739,17.6510759 C34.1192864,17.5655499 33.8336028,17.1949375 33.8336028,16.5677473 L33.8336028,7.0743679 M42.6062211,12.3484676 C43.234725,12.3484676 43.6918198,12.4910108 44.1203442,13.0611837 L47.291432,16.995377 C47.6913891,17.4515153 47.7199574,17.7651104 47.7199574,18.1357228 L47.7199574,18.4778266 L47.7485258,18.5063353 C47.7485258,18.5063353 48.7769878,18.4778266 49.4911957,18.4778266 C50.2911087,18.4778266 51.8052328,18.5063353 51.8052328,18.5063353 L51.8909379,18.4778266 L51.8909379,17.879145 C51.8909379,17.7936191 51.7766644,17.7366018 51.6909593,17.7080931 L51.5481175,17.6795845 C50.9767514,17.5655499 50.2911097,17.394498 49.9482894,16.995377 L45.6344672,11.8068033 C45.4916254,11.6357514 45.377352,11.4932082 45.377352,11.3221563 C45.377352,11.0940871 45.5487632,10.780492 46.0344242,10.2673363 L48.4913031,7.44498031 C49.519763,6.27612579 50.2911108,6.2191085 51.4052758,6.13358256 C51.5481175,6.13358256 51.6338226,6.07656526 51.6338226,5.99103932 L51.6338226,5.33534045 L51.5481175,5.3068318 C51.5481175,5.3068318 50.2911087,5.3638491 49.5483324,5.3638491 C48.719851,5.3638491 46.4058129,5.3068318 46.4058129,5.3068318 L46.3772445,5.33534045 L46.3772445,5.99103932 C46.3772445,6.07656526 46.4343813,6.10507391 46.5486547,6.13358256 C47.1200219,6.2191085 47.3771371,6.47568632 47.3771371,6.70375549 C47.3771371,7.24541978 46.4915169,8.30023971 45.3487836,9.55462017 C44.0917769,10.8945266 43.5489759,11.3791736 42.6062211,11.3791736 L42.6062211,7.0743679 C42.6062211,6.50419497 42.9204741,6.36165173 43.8060922,6.19059985 L44.1203442,6.13358256 C44.2346176,6.10507391 44.2917543,6.07656526 44.2917543,5.99103932 L44.2917543,5.3638491 L44.263186,5.3068318 C44.263186,5.3068318 42.4633783,5.3638491 41.6634653,5.3638491 C40.7778472,5.3638491 38.4352407,5.3068318 38.4352407,5.3068318 L38.4066723,5.3638491 L38.4066723,6.01954797 C38.4066723,6.10507391 38.4923774,6.13358256 38.6066509,6.13358256 L39.178018,6.19059985 C40.0922045,6.27612579 40.4064575,6.44717767 40.4064575,7.0743679 L40.4064575,16.5677473 C40.4064575,17.1094116 40.0350678,17.5655499 39.178018,17.6510759 L38.6066509,17.7080931 C38.4923774,17.7080931 38.4066723,17.7651104 38.4066723,17.879145 L38.4066723,18.4778266 L38.4638091,18.5348439 C38.4638091,18.5348439 40.8064156,18.4778266 41.6063286,18.4778266 C42.4633783,18.4778266 44.263186,18.5348439 44.263186,18.5348439 L44.2917543,18.4778266 L44.2917543,17.879145 C44.2917543,17.7651104 44.2060492,17.7366018 44.1203442,17.7080931 L43.8060922,17.6510759 C42.9776109,17.5085326 42.6062211,17.1949375 42.6062211,16.5677473 L42.6062211,12.3484676 M58.3535377,7.0743679 C58.3535377,6.50419497 58.6677896,6.27612579 59.5534088,6.19059985 L60.1533443,6.13358256 C60.2676177,6.13358256 60.3247545,6.07656526 60.3247545,5.99103932 L60.3247545,5.3638491 L60.2961861,5.3068318 C60.2961861,5.3068318 58.0964214,5.3638491 57.3250768,5.3638491 C56.4394576,5.3638491 54.1825572,5.3068318 54.1825572,5.3068318 L54.1539889,5.3638491 L54.1539889,6.01954797 C54.1539889,6.10507391 54.239694,6.13358256 54.3539674,6.13358256 L54.9253346,6.19059985 C55.8109527,6.27612579 56.153774,6.44717767 56.153774,7.0743679 L56.153774,16.5677473 C56.153774,17.1094116 55.8680894,17.5655499 54.9253346,17.6510759 L54.3539674,17.7080931 C54.239694,17.7080931 54.1539889,17.7651104 54.1539889,17.879145 L54.1539889,18.4778266 L54.2111256,18.5348439 C54.2111256,18.5348439 56.4394576,18.4778266 57.2393717,18.4778266 C58.1249898,18.4778266 60.2961861,18.5348439 60.2961861,18.5348439 L60.3247545,18.4778266 L60.3247545,17.879145 C60.3247545,17.7651104 60.2390494,17.7080931 60.1533443,17.7080931 L59.5534088,17.6510759 C58.6392223,17.5655499 58.3535377,17.1949375 58.3535377,16.5677473 L58.3535377,7.0743679 M84.0193314,18.4778266 C84.8763811,18.4778266 86.5619154,18.5348439 86.5619154,18.5348439 L86.6190521,18.4778266 L87.1904193,15.1993322 L86.4762103,15.1138063 C86.13339,16.5962559 85.3334749,17.5085326 83.8764896,17.5085326 L81.1624955,17.5085326 C80.6482651,17.5085326 80.3340131,16.9668683 80.3340131,16.425204 L80.3340131,12.0633811 L82.47664,12.0633811 C83.2194163,12.0633811 83.4765326,12.3769762 83.590806,12.9471491 L83.7336478,13.5743394 C83.7336478,13.6598653 83.7907846,13.7168826 83.9336264,13.7168826 L84.4192885,13.7168826 L84.4764252,13.6598653 C84.4192885,13.0041664 84.305015,12.4054848 84.305015,11.6927687 C84.305015,11.0085612 84.4192885,10.210319 84.4764252,9.58312882 C84.4764252,9.52611152 84.4764252,9.49760288 84.4192885,9.49760288 L83.9336264,9.49760288 C83.8193529,9.49760288 83.7622162,9.55462017 83.7622162,9.64014611 L83.590806,10.2388277 C83.4765326,10.8090006 83.276553,11.1511044 82.47664,11.1511044 L80.3340131,11.1511044 L80.3340131,7.01735061 C80.3340131,6.53270361 80.6196967,6.33314309 81.1624955,6.33314309 L83.4479642,6.33314309 C85.2763371,6.33314309 85.8191381,7.84410136 86.13339,8.89892129 L86.847599,8.78488671 C86.6476205,7.70155813 86.447642,6.58972091 86.4190736,5.3638491 L86.3619369,5.3068318 C86.3619369,5.3068318 84.3335823,5.3638491 83.4765326,5.3638491 L79.2769838,5.3638491 C78.4199341,5.3638491 76.191601,5.3068318 76.191601,5.3068318 L76.1630327,5.3638491 L76.1630327,6.01954797 C76.1630327,6.04805662 76.1630327,6.10507391 76.3344428,6.13358256 L76.9915151,6.19059985 C77.7914281,6.24761715 78.1342494,6.36165173 78.1342494,7.01735061 L78.1342494,16.425204 C78.1342494,16.995377 77.8771332,17.5655499 76.9915151,17.6510759 L76.3344428,17.7080931 C76.191601,17.7080931 76.1630327,17.7936191 76.1630327,17.8506364 L76.1630327,18.4778266 L76.191601,18.5348439 C76.191601,18.5348439 78.1628189,18.4778266 79.0198686,18.4778266 L84.0193314,18.4778266 M67.0690193,7.13138519 C67.0690193,6.39016038 67.4118417,6.13358256 68.7831208,6.13358256 C70.3543795,6.13358256 71.4685466,6.67524685 71.4685466,9.12699047 C71.4685466,11.3221563 70.6400631,12.3484676 68.9259626,12.3484676 C68.3545965,12.3484676 67.6403865,12.3199589 67.0690193,12.0918897 L67.0690193,7.13138519 M64.8692556,16.7102905 C64.8692556,17.2519548 64.583571,17.5085326 63.6979529,17.6225672 L63.0980173,17.7080931 C62.9837439,17.7366018 62.9266072,17.7651104 62.9266072,17.879145 L62.9266072,18.4778266 L62.9551756,18.5348439 C62.9551756,18.5348439 65.0978035,18.4778266 65.8977165,18.4778266 C66.7833346,18.4778266 69.0688044,18.5348439 69.0688044,18.5348439 L69.0973728,18.4778266 L69.0973728,17.879145 C69.0973728,17.7651104 69.0116677,17.7366018 68.8973943,17.7080931 L68.3260271,17.6225672 C67.4118406,17.480024 67.0690193,17.3374807 67.0690193,16.7102905 L67.0690193,12.8901318 C67.5832497,13.118201 68.154618,13.1752183 68.8688259,13.1752183 C72.9255287,13.1752183 73.7540153,10.4954055 73.7540153,8.78488671 C73.7540153,7.30243708 73.0112337,5.3068318 68.954531,5.3068318 C67.8975027,5.3068318 66.7547673,5.3638491 65.9548533,5.3638491 C65.1263719,5.3638491 63.4408377,5.3068318 63.0123123,5.3068318 L62.9551756,5.33534045 L62.9551756,5.99103932 C62.9551756,6.04805662 62.9837439,6.13358256 63.1551541,6.13358256 C64.4978659,6.2191085 64.8692556,6.24761715 64.8692556,7.13138519 L64.8692556,16.7102905 M96.7294738,5.3068318 C101.500379,5.3068318 103.842995,8.27173107 103.842995,12.0633811 C103.842995,17.0523943 100.300508,18.5348439 97.1294308,18.5348439 C94.8439621,18.5348439 93.8440684,18.4778266 92.9584504,18.4778266 C92.1014006,18.4778266 89.9302043,18.5348439 89.9302043,18.5348439 L89.9016359,18.4778266 L89.9016359,17.879145 C89.9016359,17.7936191 89.9587727,17.7080931 90.0730461,17.7080931 L90.7301183,17.6510759 C91.5871681,17.5655499 91.8728527,17.3089721 91.8728527,16.425204 L91.8728527,7.01735061 C91.8728527,6.27612579 91.6728731,6.27612579 90.7301183,6.19059985 L90.1016144,6.13358256 C89.987341,6.13358256 89.9016359,6.07656526 89.9016359,5.99103932 L89.9016359,5.3638491 L89.9302043,5.3068318 C89.9302043,5.3068318 92.4442199,5.3638491 92.9584504,5.3638491 L93.0662722,5.36334071 C93.7720304,5.35768982 96.0279618,5.3068318 96.7294738,5.3068318 Z M119.942863,0.03273215 L120,0.0897494435 L120,0.659922379 C120,0.802465613 119.885727,0.830974259 119.714316,0.859482906 L119.114381,0.9165002 C118.114488,1.00202614 117.828805,1.51518178 117.343143,2.37044118 L113.315004,9.64014611 C113.172162,9.95374122 113.115025,10.3243536 113.115025,10.8375093 L113.115025,16.425204 C113.115025,17.3089721 113.572119,17.7080931 114.686285,17.7080931 L115.457631,17.7080931 C115.571904,17.7080931 115.686178,17.7936191 115.686178,17.9361623 L115.686178,18.4778266 L115.629041,18.5348439 C115.629041,18.5348439 114.73428,18.5143177 113.777811,18.4978967 L113.393907,18.4916056 C112.882913,18.4836652 112.385961,18.4778266 112.029428,18.4778266 C111.000967,18.4778266 108.344109,18.5348439 108.344109,18.5348439 L108.286973,18.4778266 L108.286973,17.9361623 C108.286973,17.7936191 108.372678,17.7080931 108.51552,17.7080931 L109.258297,17.7080931 C110.4296,17.7080931 110.829557,17.2234462 110.829557,16.425204 L110.829557,11.0940871 C110.829557,10.780492 110.743852,10.1247931 110.572441,9.86821528 L106.430029,2.88359683 C105.515842,1.37263855 105.230158,0.973517493 104.201697,0.887991553 L103.858877,0.859482906 C103.773172,0.859482906 103.573193,0.830974259 103.573193,0.659922379 L103.573193,0.0897494435 L103.63033,0.03273215 C103.63033,0.03273215 106.258619,0.0897494435 106.630008,0.0897494435 L106.666177,0.0894607275 C107.053177,0.0850969908 109.886801,0.03273215 109.886801,0.03273215 L109.943938,0.0897494435 L109.943938,0.631413732 C109.943938,0.745448319 109.886801,0.859482906 109.772527,0.859482906 L108.944045,0.887991553 C107.944152,0.9165002 108.144131,1.31562125 108.572656,2.05684607 L112.486522,8.92742994 L112.543658,8.92742994 L116.200408,2.05684607 C116.68607,1.17307802 116.428955,0.945008847 115.800451,0.9165002 L114.9434,0.859482906 C114.829127,0.859482906 114.800559,0.745448319 114.800559,0.659922379 L114.800559,0.0897494435 L114.857695,0.03273215 C114.857695,0.03273215 117.086027,0.0897494435 117.457416,0.0897494435 L117.510243,0.0893360681 C117.931794,0.0841902574 119.942863,0.03273215 119.942863,0.03273215 Z M95.9009914,6.13358256 C94.7868253,6.13358256 94.0726164,6.30463444 94.0726164,7.01735061 L94.0726164,16.425204 C94.0726164,17.2234462 94.272597,17.7080931 96.4437902,17.7080931 C99.5862991,17.7080931 101.357548,16.5392386 101.357548,12.5480281 C101.357548,9.58312882 100.700465,6.13358256 95.9009914,6.13358256 Z" id="fy-wordmark" fill="#000000" fill-rule="nonzero"></path>
    </g>
</svg>

<svg xmlns="http://www.w3.org/2000/svg" width="120" height="19"><path fill="#000" fill-rule="nonzero" d="M16.456.94c1.229.172 1.086.799.229 2.453l-1.514 2.85-.143-.142-1.4-2.88c-.771-1.625-.886-2.11.314-2.28.172-.171.172-.77 0-.941-1.028.029-1.485.057-2.6.057C10.2.057 9.715.029 8.8 0c-.171.171-.143.77.029.94 1.228.172 1.456.571 2.4 2.595l2.399 5.103-3.171 6.472h-.143L5.086 3.22c-.714-1.625-.628-2.08 1.171-2.28.172-.171.172-.77 0-.941C4.915.029 4.2.057 3.087.057 1.943.057 1.456.029.114 0c-.171.171-.143.77.029.94 1.628.143 1.685.571 2.542 2.595l6.228 14.596c.172.428.372.656.657.656.315 0 .515-.228.686-.656l4.2-8.267 3.856 8.267c.143.428.372.656.657.656.315 0 .486-.228.686-.656l6.742-14.539c.6-1.311.943-2.423 2.828-2.651.172-.171.172-.77 0-.941-1.142.029-1.857.057-2.514.057-.657 0-1.485-.028-2.828-.057-.171.171-.171.77 0 .94 1.857.143 1.886.913 1.228 2.453L19.684 15.11h-.142l-3.657-7.527 2.085-3.99C18.685 2.28 19.313 1.168 20.8.94c.171-.171.171-.77 0-.941-.715.029-1.429.057-2.086.057-.657 0-1.2-.028-2.257-.057-.171.171-.171.77 0 .94m17.378 6.134c0-.57.314-.798 1.2-.883l.6-.057c.114 0 .17-.057.17-.143v-.627l-.028-.057s-2.2.057-2.97.057c-.886 0-3.143-.057-3.143-.057l-.029.057v.656c0 .085.086.114.2.114l.571.057c.886.085 1.229.256 1.229.883v9.494c0 .541-.286.998-1.229 1.083l-.571.057c-.114 0-.2.057-.2.171v.599l.057.057s2.229-.057 3.028-.057c.886 0 3.057.057 3.057.057l.029-.057v-.599c0-.114-.086-.17-.172-.17l-.6-.058c-.914-.085-1.2-.456-1.2-1.083V7.074m8.773 5.274c.629 0 1.086.143 1.514.713l3.171 3.934c.4.457.429.77.429 1.14v.343l.029.028s1.028-.028 1.742-.028c.8 0 2.314.028 2.314.028l.086-.028v-.599c0-.085-.114-.142-.2-.17l-.143-.03c-.571-.113-1.257-.285-1.6-.684l-4.314-5.188c-.142-.171-.257-.314-.257-.485 0-.228.172-.542.657-1.055l2.457-2.822c1.029-1.169 1.8-1.226 2.914-1.311.143 0 .229-.057.229-.143v-.656l-.086-.028s-1.257.057-2 .057c-.828 0-3.142-.057-3.142-.057l-.029.028v.656c0 .086.057.114.172.143.571.085.828.342.828.57 0 .541-.885 1.596-2.028 2.85-1.257 1.34-1.8 1.825-2.743 1.825V7.074c0-.57.314-.712 1.2-.883l.314-.057c.115-.029.172-.057.172-.143v-.627l-.029-.057s-1.8.057-2.6.057c-.885 0-3.228-.057-3.228-.057l-.028.057v.656c0 .085.085.114.2.114l.571.057c.914.085 1.228.256 1.228.883v9.494c0 .541-.37.998-1.228 1.083l-.571.057c-.115 0-.2.057-.2.171v.599l.057.057s2.342-.057 3.142-.057c.857 0 2.657.057 2.657.057l.029-.057v-.599c0-.114-.086-.142-.172-.17l-.314-.058c-.828-.142-1.2-.456-1.2-1.083v-4.22m15.748-5.274c0-.57.314-.798 1.2-.883l.6-.057c.114 0 .17-.057.17-.143v-.627l-.028-.057s-2.2.057-2.97.057c-.887 0-3.143-.057-3.143-.057l-.029.057v.656c0 .085.086.114.2.114l.571.057c.886.085 1.229.256 1.229.883v9.494c0 .541-.286.998-1.229 1.083l-.571.057c-.114 0-.2.057-.2.171v.599l.057.057s2.228-.057 3.028-.057c.886 0 3.057.057 3.057.057l.029-.057v-.599c0-.114-.086-.17-.172-.17l-.6-.058c-.914-.085-1.2-.456-1.2-1.083V7.074M84.02 18.478c.857 0 2.543.057 2.543.057l.057-.057.571-3.279-.714-.085c-.343 1.482-1.143 2.395-2.6 2.395h-2.714c-.514 0-.828-.542-.828-1.084v-4.362h2.143c.742 0 1 .314 1.114.884l.143.627c0 .086.057.143.2.143h.485l.057-.057c-.057-.656-.171-1.255-.171-1.967 0-.684.114-1.483.171-2.11 0-.057 0-.085-.057-.085h-.485c-.115 0-.172.057-.172.142l-.171.599c-.114.57-.314.912-1.114.912h-2.143V7.017c0-.484.286-.684.828-.684h2.286c1.828 0 2.371 1.511 2.685 2.566l.715-.114c-.2-1.083-.4-2.195-.429-3.421l-.057-.057s-2.028.057-2.885.057h-4.2c-.857 0-3.085-.057-3.085-.057l-.029.057v.656c0 .028 0 .085.171.114l.658.057c.8.057 1.142.17 1.142.826v9.408c0 .57-.257 1.14-1.142 1.226l-.658.057c-.142 0-.171.086-.171.143v.627l.029.057s1.97-.057 2.828-.057h5M67.068 7.13c0-.74.343-.997 1.714-.997 1.571 0 2.686.541 2.686 2.993 0 2.195-.829 3.221-2.543 3.221-.571 0-1.286-.028-1.857-.256v-4.96m-2.2 9.578c0 .542-.285.799-1.171.913l-.6.085c-.114.029-.171.057-.171.171v.599l.028.057s2.143-.057 2.943-.057c.885 0 3.17.057 3.17.057l.03-.057v-.599c0-.114-.086-.142-.2-.17l-.572-.086c-.914-.143-1.257-.286-1.257-.913v-3.82c.514.228 1.086.285 1.8.285 4.057 0 4.885-2.68 4.885-4.39 0-1.483-.743-3.478-4.8-3.478-1.056 0-2.2.057-3 .057-.828 0-2.513-.057-2.942-.057l-.057.028v.656c0 .057.029.143.2.143 1.343.085 1.714.114 1.714.997v9.58M96.73 5.306c4.771 0 7.114 2.965 7.114 6.756 0 4.99-3.542 6.472-6.714 6.472-2.285 0-3.285-.057-4.17-.057-.858 0-3.029.057-3.029.057l-.028-.057v-.599c0-.085.057-.17.171-.17l.657-.058c.857-.085 1.143-.342 1.143-1.226V7.017c0-.74-.2-.74-1.143-.826l-.628-.057c-.115 0-.2-.057-.2-.143v-.627l.028-.057s2.514.057 3.028.057h.108c.706-.006 2.962-.057 3.663-.057ZM119.943.033 120 .09v.57c0 .142-.114.171-.286.2l-.6.057c-1 .085-1.285.598-1.77 1.453l-4.029 7.27c-.143.314-.2.684-.2 1.198v5.587c0 .884.457 1.283 1.571 1.283h.772c.114 0 .228.086.228.228v.542l-.057.057s-.895-.02-1.851-.037l-.384-.006a96.578 96.578 0 0 0-1.365-.014c-1.028 0-3.685.057-3.685.057l-.057-.057v-.542c0-.142.086-.228.229-.228h.742c1.172 0 1.572-.485 1.572-1.283v-5.33c0-.315-.086-.97-.258-1.227l-4.142-6.984c-.914-1.511-1.2-1.91-2.228-1.996l-.343-.029c-.086 0-.286-.028-.286-.2V.09l.057-.056s2.629.057 3 .057h.036c.387-.005 3.22-.057 3.22-.057l.058.057V.63c0 .114-.057.228-.171.228l-.829.029c-1 .029-.8.428-.371 1.169l3.914 6.87h.057l3.656-6.87c.486-.884.229-1.112-.4-1.14l-.857-.058c-.114 0-.142-.114-.142-.2V.09l.057-.056s2.228.057 2.6.057h.052c.422-.006 2.433-.057 2.433-.057ZM95.9 6.133c-1.114 0-1.828.172-1.828.884v9.408c0 .798.2 1.283 2.37 1.283 3.143 0 4.915-1.169 4.915-5.16 0-2.965-.658-6.414-5.457-6.414Z"/></svg>
